X: 6892
T: Chasing Time
R: reel
M: 4/4
K: Fmajor
|:F3 A f2 dA|cdBA Bddd|F3 A f2 dA|cdFG AGGD|
F3 A f2 dA|cdBA Bdde|ffaf gfdc|BdcA GFDC:|
FcAG A2 AG|FcAG Addd|FcAG A2 GF|GDDA BAAG|
FcAG A2 AG|FcAG Bdde|ffaf gfdc|BdcA GFDC:|

